X: 139040
Q: "Irish Jig."
M: 6/8
L: 1/8
K: Dmix
vAG |\
fg |\
afd {e}dcd | dfa agf | ge=c {d}cBc | e=ce gfe |\
fdf geg | agf efg | fed cAG | Add d |]


